Newaita-dark/apps/64/chromium-browser.svg

<svg height="64" viewBox="0 0 64 64" width="64" xmlns="http://www.w3.org/2000/svg" xmlns:xlink="http://www.w3.org/1999/xlink"><linearGradient id="a"><stop offset="0" stop-opacity=".313726"/><stop offset=".222222" stop-opacity=".27451"/><stop offset="1" stop-opacity="0"/></linearGradient><radialGradient id="b" cx="450.908936" cy="189.579361" gradientTransform="matrix(.00000035 -.156265 -.281277 -.0000002 89.046304 127.190659)" gradientUnits="userSpaceOnUse" r="21.166656" xlink:href="#a"/><radialGradient id="c" cx="450.908936" cy="189.579361" gradientTransform="matrix(-.00000035 .156265 .281277 .0000002 -25.540237 -15.054964)" gradientUnits="userSpaceOnUse" r="21.166656" xlink:href="#a"/><radialGradient id="d" cx="450.908936" cy="189.579361" gradientTransform="matrix(-.00000035 -.156265 .281277 -.0000002 -25.540237 127.190659)" gradientUnits="userSpaceOnUse" r="21.166656" xlink:href="#a"/><radialGradient id="e" cx="450.908936" cy="189.579361" gradientTransform="matrix(.00000035 .156265 -.281277 .0000002 89.0463 -15.054965)" gradientUnits="userSpaceOnUse" r="21.166656" xlink:href="#a"/><linearGradient id="f" gradientTransform="matrix(.0267201 0 0 .125012 24.930772 26.877567)" gradientUnits="userSpaceOnUse" x1="255.323059" x2="255.323044" y1="233.5" y2="254.666656"><stop offset="0" stop-opacity=".27451"/><stop offset="1" stop-opacity="0"/></linearGradient><linearGradient id="g" gradientUnits="userSpaceOnUse" x1="179.916672" x2="179.916672" y1="233.5" y2="-168.666656"><stop offset="0" stop-color="#42a5f5"/><stop offset="1" stop-color="#64b5f6"/></linearGradient><linearGradient id="h" gradientUnits="userSpaceOnUse" x1="960" x2="960" y1="1695.118164" y2="175.118134"><stop offset="0" stop-color="#2196f3"/><stop offset="1" stop-color="#42a5f5"/></linearGradient><linearGradient id="i" gradientUnits="userSpaceOnUse" x1="1360" x2="1360" y1="1695.118164" y2="95.118111"><stop offset="0" stop-color="#64b5f6"/><stop offset="1" stop-color="#90caf9"/></linearGradient><linearGradient id="j" gradientUnits="userSpaceOnUse" x1="31.753048" x2="31.753048" y1="40.191344" y2="21.66873249998"><stop offset="0" stop-color="#e0e0e0"/><stop offset="1" stop-color="#eee"/></linearGradient><linearGradient id="k" gradientUnits="userSpaceOnUse" x1="31.753048" x2="31.753048" y1="37.54525700003" y2="24.31482"><stop offset="0" stop-color="#2196f3"/><stop offset="1" stop-color="#64b5f6"/></linearGradient><path d="m36.382812 56.066406h5.292969v-2.644531h-5.292969zm0 0" fill="url(#b)"/><path d="m27.121094 56.066406h-5.289063v2.648438h5.289063zm0 0" fill="url(#c)"/><path d="m27.121094 56.066406h-5.289063v-2.644531h5.289063zm0 0" fill="url(#d)"/><path d="m36.382812 56.066406h5.292969v2.648438h-5.292969zm0 0" fill="url(#e)"/><path d="m27.121094 55.40625h9.261718v3.308594h-9.261718zm0 0" fill="url(#f)"/><g stroke="#212121" stroke-linecap="round"><path d="m254.006994-168.660675c111.051895 0 201.074548 90.022653 201.074548 201.074548s-90.022653 201.074548-201.074548 201.074548c-111.051896 0-201.105796-90.022653-201.105796-201.074548s90.0539-201.074548 201.105796-201.074548zm0 0" fill="url(#g)" stroke-width="3" transform="matrix(.125012 0 0 .125012 0 26.877566)"/><path d="m960.026483 175.140764c-290.641552 0-542.192346 161.441285-670.093525 400.001193l430.116429 479.954192 239.977096 119.988548v40.035549l280.012645-280.012645 439.918643 239.977096v4.842058c25.981772-76.764327 40.035549-159.079306 40.035549-244.819154 0-421.022808-338.944029-759.966837-759.966837-759.966837zm0 0" fill="url(#h)" stroke-width="11.338583" transform="scale(.0330761)"/><path d="m960.026483 655.094956 280.012645 280.012645-280.012645 759.966837h1.299088c420.314215 0 758.667749-338.944028 758.667749-759.966837 0-95.423963-17.360548-186.714463-49.247269-270.800925-2.480078-2.952475-4.369661-6.023048-5.550651-9.21172zm0 0" fill="url(#i)" stroke-width="11.338583" transform="scale(.0330761)"/></g><path d="m31.753906 56.066406c-13.925781 0-25.140625-11.210937-25.140625-25.136718 0-.082032.003907-.164063.003907-.246094.128906 13.8125 11.292968 24.890625 25.136718 24.890625s25.003906-11.078125 25.136719-24.890625v.246094c0 13.925781-11.210937 25.136718-25.136719 25.136718zm0 0" fill-opacity=".196078"/><path d="m31.753906 5.792969c-13.925781 0-25.140625 11.210937-25.140625 25.136719 0 .082031.003907.164062.003907.246093.128906-13.8125 11.292968-24.890625 25.136718-24.890625s25.003906 11.078125 25.136719 24.890625c0-.082031 0-.164062 0-.246093 0-13.925782-11.210937-25.136719-25.136719-25.136719zm0 0" fill="#fff" fill-opacity=".352941"/><path d="m31.753906 21.667969c5.113282 0 9.261719 4.148437 9.261719 9.261719 0 5.113281-4.148437 9.261718-9.261719 9.261718-5.117187 0-9.261718-4.148437-9.261718-9.261718 0-5.113282 4.144531-9.261719 9.261718-9.261719zm0 0" fill="url(#j)"/><path d="m31.753906 24.316406c3.652344 0 6.613282 2.960938 6.613282 6.613282 0 3.652343-2.960938 6.617187-6.613282 6.617187-3.65625 0-6.617187-2.964844-6.617187-6.617187 0-3.652344 2.960937-6.613282 6.617187-6.613282zm0 0" fill="url(#k)"/><path d="m31.753906 5.605469c-14.027344 0-25.328125 11.296875-25.328125 25.324219 0 14.027343 11.300781 25.324218 25.328125 25.324218s25.324219-11.296875 25.324219-25.324218c0-14.027344-11.296875-25.324219-25.324219-25.324219zm0 .375c13.824219 0 24.949219 11.125 24.949219 24.949219 0 13.824218-11.125 24.949218-24.949219 24.949218-13.828125 0-24.953125-11.125-24.953125-24.949218 0-13.824219 11.125-24.949219 24.953125-24.949219zm0 0" fill="#212121"/><path d="m31.753906 24.316406c-3.664062 0-6.617187 2.949219-6.617187 6.613282 0 .167968.007812.332031.019531.496093.253906-3.429687 3.097656-6.117187 6.597656-6.117187 3.496094 0 6.34375 2.6875 6.597656 6.117187.011719-.164062.015626-.328125.015626-.496093 0-3.664063-2.949219-6.613282-6.613282-6.613282zm0 0" fill="#fff" fill-opacity=".392157"/><path d="m31.753906 38.539062c-3.664062 0-6.617187-2.953124-6.617187-6.617187 0-.167969.007812-.332031.019531-.496094.253906 3.433594 3.097656 6.121094 6.597656 6.121094 3.496094 0 6.34375-2.6875 6.597656-6.121094.011719.164063.015626.328125.015626.496094 0 3.664063-2.949219 6.617187-6.613282 6.617187zm0 0" fill-opacity=".235294"/><path d="m254.006994-20.487571c29.21596 0 52.901198 23.685238 52.901198 52.901198s-23.685238 52.932445-52.901198 52.932445c-29.247207 0-52.932446-23.716485-52.932446-52.932445 0-29.21596 23.685239-52.901198 52.932446-52.901198zm0 0" fill="none" stroke="#212121" stroke-linecap="round" stroke-width="3" transform="matrix(.125012 0 0 .125012 0 26.877597)"/><path d="m31.753906 21.667969c-5.132812 0-9.261718 4.132812-9.261718 9.261719 0 .167968.003906.332031.011718.496093.257813-4.898437 4.285156-8.765625 9.25-8.765625s8.992188 3.867188 9.246094 8.765625c.007812-.164062.015625-.328125.015625-.496093 0-5.128907-4.132813-9.261719-9.261719-9.261719zm0 0" fill="#fff"/><path d="m31.753906 41.347656c-5.132812 0-9.261718-4.128906-9.261718-9.261718 0-.164063.003906-.328126.011718-.496094.257813 4.898437 4.285156 8.765625 9.25 8.765625s8.992188-3.867188 9.246094-8.765625c.007812.167968.015625.332031.015625.496094 0 5.132812-4.132813 9.261718-9.261719 9.261718zm0 0" fill-opacity=".235294"/><path d="m254.006994-41.673048c40.902344 0 74.086675 33.184331 74.086675 74.086675 0 40.933591-33.184331 74.086675-74.086675 74.086675-40.933591 0-74.086676-33.153084-74.086676-74.086675 0-40.902344 33.153085-74.086675 74.086676-74.086675zm0 0" fill="none" stroke="#212121" stroke-linecap="round" stroke-width="3" transform="matrix(.125012 0 0 .125012 0 26.877597)"/></svg>

<?xml version="1.0" encoding="UTF-8"?>
<svg xmlns="http://www.w3.org/2000/svg" xmlns:xlink="http://www.w3.org/1999/xlink" width="64px" height="64px" viewBox="0 0 64 64" version="1.1">
<defs>
<radialGradient id="radial0" gradientUnits="userSpaceOnUse" cx="450.908936" cy="189.579361" fx="450.908936" fy="189.579361" r="21.166656" gradientTransform="matrix(0.000000348341,-0.156265,-0.281277,-0.000000203077,89.046304,127.190659)">
<stop offset="0" style="stop-color:rgb(0%,0%,0%);stop-opacity:0.313726;"/>
<stop offset="0.222222" style="stop-color:rgb(0%,0%,0%);stop-opacity:0.27451;"/>
<stop offset="1" style="stop-color:rgb(0%,0%,0%);stop-opacity:0;"/>
</radialGradient>
<radialGradient id="radial1" gradientUnits="userSpaceOnUse" cx="450.908936" cy="189.579361" fx="450.908936" fy="189.579361" r="21.166656" gradientTransform="matrix(-0.000000348341,0.156265,0.281277,0.000000203077,-25.540237,-15.054964)">
<stop offset="0" style="stop-color:rgb(0%,0%,0%);stop-opacity:0.313726;"/>
<stop offset="0.222222" style="stop-color:rgb(0%,0%,0%);stop-opacity:0.27451;"/>
<stop offset="1" style="stop-color:rgb(0%,0%,0%);stop-opacity:0;"/>
</radialGradient>
<radialGradient id="radial2" gradientUnits="userSpaceOnUse" cx="450.908936" cy="189.579361" fx="450.908936" fy="189.579361" r="21.166656" gradientTransform="matrix(-0.000000348341,-0.156265,0.281277,-0.000000203077,-25.540237,127.190659)">
<stop offset="0" style="stop-color:rgb(0%,0%,0%);stop-opacity:0.313726;"/>
<stop offset="0.222222" style="stop-color:rgb(0%,0%,0%);stop-opacity:0.27451;"/>
<stop offset="1" style="stop-color:rgb(0%,0%,0%);stop-opacity:0;"/>
</radialGradient>
<radialGradient id="radial3" gradientUnits="userSpaceOnUse" cx="450.908936" cy="189.579361" fx="450.908936" fy="189.579361" r="21.166656" gradientTransform="matrix(0.000000348341,0.156265,-0.281277,0.000000203077,89.0463,-15.054965)">
<stop offset="0" style="stop-color:rgb(0%,0%,0%);stop-opacity:0.313726;"/>
<stop offset="0.222222" style="stop-color:rgb(0%,0%,0%);stop-opacity:0.27451;"/>
<stop offset="1" style="stop-color:rgb(0%,0%,0%);stop-opacity:0;"/>
</radialGradient>
<linearGradient id="linear0" gradientUnits="userSpaceOnUse" x1="255.323059" y1="233.5" x2="255.323044" y2="254.666656" gradientTransform="matrix(0.0267201,0,0,0.125012,24.930772,26.877567)">
<stop offset="0" style="stop-color:rgb(0%,0%,0%);stop-opacity:0.27451;"/>
<stop offset="1" style="stop-color:rgb(0%,0%,0%);stop-opacity:0;"/>
</linearGradient>
<linearGradient id="linear1" gradientUnits="userSpaceOnUse" x1="179.916672" y1="233.5" x2="179.916672" y2="-168.666656" >
<stop offset="0" style="stop-color:rgb(25.882354%,64.705884%,96.078432%);stop-opacity:1;"/>
<stop offset="1" style="stop-color:rgb(39.215687%,70.980394%,96.470588%);stop-opacity:1;"/>
</linearGradient>
<linearGradient id="linear2" gradientUnits="userSpaceOnUse" x1="960" y1="1695.118164" x2="960" y2="175.118134" gradientTransform="matrix(1,0,0,1,0,0)">
<stop offset="0" style="stop-color:rgb(12.941177%,58.823532%,95.294118%);stop-opacity:1;"/>
<stop offset="1" style="stop-color:rgb(25.882354%,64.705884%,96.078432%);stop-opacity:1;"/>
</linearGradient>
<linearGradient id="linear3" gradientUnits="userSpaceOnUse" x1="1360" y1="1695.118164" x2="1360" y2="95.118111" gradientTransform="matrix(1,0,0,1,0,0)">
<stop offset="0" style="stop-color:rgb(39.215687%,70.980394%,96.470588%);stop-opacity:1;"/>
<stop offset="1" style="stop-color:rgb(56.470591%,79.215688%,97.647059%);stop-opacity:1;"/>
</linearGradient>
<linearGradient id="linear4" gradientUnits="userSpaceOnUse" x1="254" y1="106.5" x2="254" y2="-41.666668" gradientTransform="matrix(0.125012,0,0,0.125012,0,26.877566)">
<stop offset="0" style="stop-color:rgb(87.843138%,87.843138%,87.843138%);stop-opacity:1;"/>
<stop offset="1" style="stop-color:rgb(93.333334%,93.333334%,93.333334%);stop-opacity:1;"/>
</linearGradient>
<linearGradient id="linear5" gradientUnits="userSpaceOnUse" x1="254" y1="85.333336" x2="254" y2="-20.5" gradientTransform="matrix(0.125012,0,0,0.125012,0,26.877566)">
<stop offset="0" style="stop-color:rgb(12.941177%,58.823532%,95.294118%);stop-opacity:1;"/>
<stop offset="1" style="stop-color:rgb(39.215687%,70.980394%,96.470588%);stop-opacity:1;"/>
</linearGradient>
</defs>
<g id="surface1">
<path style=" stroke:none;fill-rule:nonzero;fill:url(#radial0);" d="M 36.382812 56.066406 L 41.675781 56.066406 L 41.675781 53.421875 L 36.382812 53.421875 Z M 36.382812 56.066406 "/>
<path style=" stroke:none;fill-rule:nonzero;fill:url(#radial1);" d="M 27.121094 56.066406 L 21.832031 56.066406 L 21.832031 58.714844 L 27.121094 58.714844 Z M 27.121094 56.066406 "/>
<path style=" stroke:none;fill-rule:nonzero;fill:url(#radial2);" d="M 27.121094 56.066406 L 21.832031 56.066406 L 21.832031 53.421875 L 27.121094 53.421875 Z M 27.121094 56.066406 "/>
<path style=" stroke:none;fill-rule:nonzero;fill:url(#radial3);" d="M 36.382812 56.066406 L 41.675781 56.066406 L 41.675781 58.714844 L 36.382812 58.714844 Z M 36.382812 56.066406 "/>
<path style=" stroke:none;fill-rule:nonzero;fill:url(#linear0);" d="M 27.121094 55.40625 L 36.382812 55.40625 L 36.382812 58.714844 L 27.121094 58.714844 Z M 27.121094 55.40625 "/>
<path style="fill-rule:nonzero;fill:url(#linear1);stroke-width:3;stroke-linecap:round;stroke-linejoin:miter;stroke:rgb(12.941177%,12.941177%,12.941177%);stroke-opacity:1;stroke-miterlimit:4;" d="M 254.006994 -168.660675 C 365.058889 -168.660675 455.081542 -78.638022 455.081542 32.413873 C 455.081542 143.465768 365.058889 233.488421 254.006994 233.488421 C 142.955098 233.488421 52.901198 143.465768 52.901198 32.413873 C 52.901198 -78.638022 142.955098 -168.660675 254.006994 -168.660675 Z M 254.006994 -168.660675 " transform="matrix(0.125012,0,0,0.125012,0,26.877566)"/>
<path style="fill-rule:nonzero;fill:url(#linear2);stroke-width:11.338583;stroke-linecap:round;stroke-linejoin:miter;stroke:rgb(12.941177%,12.941177%,12.941177%);stroke-opacity:1;stroke-miterlimit:4;" d="M 960.026483 175.140764 C 669.384931 175.140764 417.834137 336.582049 289.932958 575.141957 L 720.049387 1055.096149 L 960.026483 1175.084697 L 960.026483 1215.120246 L 1240.039128 935.107601 L 1679.957771 1175.084697 L 1679.957771 1179.926755 C 1705.939543 1103.162428 1719.99332 1020.847449 1719.99332 935.107601 C 1719.99332 514.084793 1381.049291 175.140764 960.026483 175.140764 Z M 960.026483 175.140764 " transform="matrix(0.0330761,0,0,0.0330761,0,0)"/>
<path style="fill-rule:nonzero;fill:url(#linear3);stroke-width:11.338583;stroke-linecap:round;stroke-linejoin:miter;stroke:rgb(12.941177%,12.941177%,12.941177%);stroke-opacity:1;stroke-miterlimit:4;" d="M 960.026483 655.094956 L 1240.039128 935.107601 L 960.026483 1695.074438 L 961.325571 1695.074438 C 1381.639786 1695.074438 1719.99332 1356.13041 1719.99332 935.107601 C 1719.99332 839.683638 1702.632772 748.393138 1670.746051 664.306676 C 1668.265973 661.354201 1666.37639 658.283628 1665.1954 655.094956 Z M 960.026483 655.094956 " transform="matrix(0.0330761,0,0,0.0330761,0,0)"/>
<path style=" stroke:none;fill-rule:nonzero;fill:rgb(0%,0%,0%);fill-opacity:0.196078;" d="M 31.753906 56.066406 C 17.828125 56.066406 6.613281 44.855469 6.613281 30.929688 C 6.613281 30.847656 6.617188 30.765625 6.617188 30.683594 C 6.746094 44.496094 17.910156 55.574219 31.753906 55.574219 C 45.597656 55.574219 56.757812 44.496094 56.890625 30.683594 C 56.890625 30.765625 56.890625 30.847656 56.890625 30.929688 C 56.890625 44.855469 45.679688 56.066406 31.753906 56.066406 Z M 31.753906 56.066406 "/>
<path style=" stroke:none;fill-rule:nonzero;fill:rgb(100%,100%,100%);fill-opacity:0.352941;" d="M 31.753906 5.792969 C 17.828125 5.792969 6.613281 17.003906 6.613281 30.929688 C 6.613281 31.011719 6.617188 31.09375 6.617188 31.175781 C 6.746094 17.363281 17.910156 6.285156 31.753906 6.285156 C 45.597656 6.285156 56.757812 17.363281 56.890625 31.175781 C 56.890625 31.09375 56.890625 31.011719 56.890625 30.929688 C 56.890625 17.003906 45.679688 5.792969 31.753906 5.792969 Z M 31.753906 5.792969 "/>
<path style=" stroke:none;fill-rule:nonzero;fill:url(#linear4);" d="M 31.753906 21.667969 C 36.867188 21.667969 41.015625 25.816406 41.015625 30.929688 C 41.015625 36.042969 36.867188 40.191406 31.753906 40.191406 C 26.636719 40.191406 22.492188 36.042969 22.492188 30.929688 C 22.492188 25.816406 26.636719 21.667969 31.753906 21.667969 Z M 31.753906 21.667969 "/>
<path style=" stroke:none;fill-rule:nonzero;fill:url(#linear5);" d="M 31.753906 24.316406 C 35.40625 24.316406 38.367188 27.277344 38.367188 30.929688 C 38.367188 34.582031 35.40625 37.546875 31.753906 37.546875 C 28.097656 37.546875 25.136719 34.582031 25.136719 30.929688 C 25.136719 27.277344 28.097656 24.316406 31.753906 24.316406 Z M 31.753906 24.316406 "/>
<path style=" stroke:none;fill-rule:nonzero;fill:rgb(12.941177%,12.941177%,12.941177%);fill-opacity:1;" d="M 31.753906 5.605469 C 17.726562 5.605469 6.425781 16.902344 6.425781 30.929688 C 6.425781 44.957031 17.726562 56.253906 31.753906 56.253906 C 45.78125 56.253906 57.078125 44.957031 57.078125 30.929688 C 57.078125 16.902344 45.78125 5.605469 31.753906 5.605469 Z M 31.753906 5.980469 C 45.578125 5.980469 56.703125 17.105469 56.703125 30.929688 C 56.703125 44.753906 45.578125 55.878906 31.753906 55.878906 C 17.925781 55.878906 6.800781 44.753906 6.800781 30.929688 C 6.800781 17.105469 17.925781 5.980469 31.753906 5.980469 Z M 31.753906 5.980469 "/>
<path style=" stroke:none;fill-rule:nonzero;fill:rgb(100%,100%,100%);fill-opacity:0.392157;" d="M 31.753906 24.316406 C 28.089844 24.316406 25.136719 27.265625 25.136719 30.929688 C 25.136719 31.097656 25.144531 31.261719 25.15625 31.425781 C 25.410156 27.996094 28.253906 25.308594 31.753906 25.308594 C 35.25 25.308594 38.097656 27.996094 38.351562 31.425781 C 38.363281 31.261719 38.367188 31.097656 38.367188 30.929688 C 38.367188 27.265625 35.417969 24.316406 31.753906 24.316406 Z M 31.753906 24.316406 "/>
<path style=" stroke:none;fill-rule:nonzero;fill:rgb(0%,0%,0%);fill-opacity:0.235294;" d="M 31.753906 38.539062 C 28.089844 38.539062 25.136719 35.585938 25.136719 31.921875 C 25.136719 31.753906 25.144531 31.589844 25.15625 31.425781 C 25.410156 34.859375 28.253906 37.546875 31.753906 37.546875 C 35.25 37.546875 38.097656 34.859375 38.351562 31.425781 C 38.363281 31.589844 38.367188 31.753906 38.367188 31.921875 C 38.367188 35.585938 35.417969 38.539062 31.753906 38.539062 Z M 31.753906 38.539062 "/>
<path style="fill:none;stroke-width:3;stroke-linecap:round;stroke-linejoin:miter;stroke:rgb(12.941177%,12.941177%,12.941177%);stroke-opacity:1;stroke-miterlimit:4;" d="M 254.006994 -20.487571 C 283.222954 -20.487571 306.908192 3.197667 306.908192 32.413627 C 306.908192 61.629587 283.222954 85.346072 254.006994 85.346072 C 224.759787 85.346072 201.074548 61.629587 201.074548 32.413627 C 201.074548 3.197667 224.759787 -20.487571 254.006994 -20.487571 Z M 254.006994 -20.487571 " transform="matrix(0.125012,0,0,0.125012,0,26.877597)"/>
<path style=" stroke:none;fill-rule:nonzero;fill:rgb(100%,100%,100%);fill-opacity:1;" d="M 31.753906 21.667969 C 26.621094 21.667969 22.492188 25.800781 22.492188 30.929688 C 22.492188 31.097656 22.496094 31.261719 22.503906 31.425781 C 22.761719 26.527344 26.789062 22.660156 31.753906 22.660156 C 36.71875 22.660156 40.746094 26.527344 41 31.425781 C 41.007812 31.261719 41.015625 31.097656 41.015625 30.929688 C 41.015625 25.800781 36.882812 21.667969 31.753906 21.667969 Z M 31.753906 21.667969 "/>
<path style=" stroke:none;fill-rule:nonzero;fill:rgb(0%,0%,0%);fill-opacity:0.235294;" d="M 31.753906 41.347656 C 26.621094 41.347656 22.492188 37.21875 22.492188 32.085938 C 22.492188 31.921875 22.496094 31.757812 22.503906 31.589844 C 22.761719 36.488281 26.789062 40.355469 31.753906 40.355469 C 36.71875 40.355469 40.746094 36.488281 41 31.589844 C 41.007812 31.757812 41.015625 31.921875 41.015625 32.085938 C 41.015625 37.21875 36.882812 41.347656 31.753906 41.347656 Z M 31.753906 41.347656 "/>
<path style="fill:none;stroke-width:3;stroke-linecap:round;stroke-linejoin:miter;stroke:rgb(12.941177%,12.941177%,12.941177%);stroke-opacity:1;stroke-miterlimit:4;" d="M 254.006994 -41.673048 C 294.909338 -41.673048 328.093669 -8.488717 328.093669 32.413627 C 328.093669 73.347218 294.909338 106.500302 254.006994 106.500302 C 213.073403 106.500302 179.920318 73.347218 179.920318 32.413627 C 179.920318 -8.488717 213.073403 -41.673048 254.006994 -41.673048 Z M 254.006994 -41.673048 " transform="matrix(0.125012,0,0,0.125012,0,26.877597)"/>
</g>
</svg>
